icon-themes/breeze_svg/cmd/lc_spellonline.svg

<svg viewBox="0 0 24 24" xmlns="http://www.w3.org/2000/svg"><path d="m17.5 15c-1.385 0-2.5 1.115-2.5 2.5 0 .43343.12.83286.3125 1.1875l.75-.75c-.041-.1371-.0625-.28671-.0625-.4375 0-.831.669-1.5 1.5-1.5.15079 0 .3004.0215.4375.0625l.75-.75c-.35464-.1925-.75407-.3125-1.1875-.3125zm2.1875 1.3125-.75.75c.041.1371.0625.28671.0625.4375 0 .831-.669 1.5-1.5 1.5-.15079 0-.3004-.0215-.4375-.0625l-.75.75c.35464.1925.75407.3125 1.1875.3125 1.385 0 2.5-1.115 2.5-2.5 0-.43343-.12-.83286-.3125-1.1875zm-15.6875 2.6875v1h11v-1z" fill="#27ae60"/><path d="m11.15625 4-5.21875 14h1.6875l1.65625-4.4375h5.5625l.15625.4375h1.65625l-3.5-10zm1 1.625 2.125 6.65625h-4.46875z" fill="#4d4d4d"/></svg>

<svg xmlns="http://www.w3.org/2000/svg" viewBox="0 0 24 24">
 <path 
     style="fill:#27ae60" 
     d="M 17.5 15 C 16.115 15 15 16.115 15 17.5 C 15 17.93343 15.12 18.33286 15.3125 18.6875 L 16.0625 17.9375 C 16.0215 17.8004 16 17.65079 16 17.5 C 16 16.669 16.669 16 17.5 16 C 17.65079 16 17.8004 16.0215 17.9375 16.0625 L 18.6875 15.3125 C 18.33286 15.12 17.93343 15 17.5 15 z M 19.6875 16.3125 L 18.9375 17.0625 C 18.9785 17.1996 19 17.34921 19 17.5 C 19 18.331 18.331 19 17.5 19 C 17.34921 19 17.1996 18.9785 17.0625 18.9375 L 16.3125 19.6875 C 16.66714 19.88 17.06657 20 17.5 20 C 18.885 20 20 18.885 20 17.5 C 20 17.06657 19.88 16.66714 19.6875 16.3125 z M 4 19 L 4 20 L 15 20 L 15 19 L 4 19 z "
     />
 <path 
     style="fill:#4d4d4d" 
     d="M 11.15625 4 L 5.9375 18 L 7.625 18 L 9.28125 13.5625 L 14.84375 13.5625 L 15 14 L 16.65625 14 L 13.15625 4 L 11.15625 4 z M 12.15625 5.625 L 14.28125 12.28125 L 9.8125 12.28125 L 12.15625 5.625 z "
     />
 </svg>
